X:3235
T:Old Jörgen
C:Rune Persson 
R:Gånglåt
O:Kisa, Östergötland
Q:65
Z:Jörgen Olsson
M:2/4
L:1/8
K:Gm
|:"Gm"G,G,/A,/ B,B,/C/|"D7"DD/^F/ "Gm"G2|{^F/}G G/A/ (B/A/)B/c/|"D7"d d/{e}d/{^c} d2|
"Gm"G,G,/A,/ B,B,/C/|"D7"DD/^F/ "Gm"G2|{^F/}G G/A/"D7" (B/A/)G/^F/|"Gm"{^F/}G2 [DG]2:|
[K:G]|:"G"G B/d/ g2|{d/}(e/d/)^c/d/ [dB]2|[GD] B/d/ "D"d/c/A/^F/|"G"G/^F/G/D/ "D7"C/B,/A,/G,/|
"G"[DG] B/d/ g2|{d/}(e/d/)^c/d/ [dB]2|[GD] B/d/ "D"d/c/A/^F/|"G"GG [DG]2 :|]


(:musicend:)
(:music:)
